fs/currency_dollar_rupee_20_filled.svg

<svg viewBox="0 0 20 20" fill="none" xmlns="http://www.w3.org/2000/svg" height="1em" width="1em">
  <path d="M6.25 2.74805C6.25 2.33383 5.91421 1.99805 5.5 1.99805C5.08579 1.99805 4.75 2.33383 4.75 2.74805V3.07969C3.17741 3.42302 2 4.82358 2 6.49914V6.78033C2 8.24554 2.84648 9.57885 4.17246 10.2022L4.75 10.4737V15.3376C4.01735 15.041 3.5 14.3227 3.5 13.483V12.4025C3.5 11.9883 3.16421 11.6525 2.75 11.6525C2.33579 11.6525 2 11.9883 2 12.4025V13.483C2 15.1594 3.17826 16.5593 4.75 16.9024V17.2502C4.75 17.6644 5.08579 18.0002 5.5 18.0002C5.91421 18.0002 6.25 17.6644 6.25 17.2502V16.9024C7.82345 16.5589 9 15.1576 8.99999 13.4829L8.99999 13.2104C8.99999 11.7479 8.15508 10.4171 6.83156 9.79485L6.25 9.52144V4.64453C6.98295 4.94122 7.49999 5.6598 7.5 6.49914L7.5 7.59491C7.5 8.00912 7.83579 8.3449 8.25 8.3449C8.66422 8.3449 9 8.00911 9 7.5949L9 6.49913C8.99999 4.82358 7.82258 3.42303 6.25 3.07969V2.74805ZM4.75 4.64452V8.81515C3.98496 8.42759 3.5 7.64174 3.5 6.78033V6.49914C3.5 5.6598 4.01704 4.94122 4.75 4.64452ZM6.25 11.1799C7.0149 11.5656 7.49999 12.3502 7.49999 13.2104L7.49999 13.4829C7.49999 14.3219 6.98326 15.0408 6.25 15.3376V11.1799ZM10.75 2.99915C10.3358 2.99915 10 3.33493 10 3.74915C10 4.16336 10.3358 4.49915 10.75 4.49915H13.5C14.3834 4.49915 15.148 5.00829 15.5161 5.74915H10.75C10.3358 5.74915 10 6.08493 10 6.49915C10 6.91336 10.3358 7.24915 10.75 7.24915H15.6943C15.4669 8.25114 14.5708 8.99915 13.5 8.99915H10.75C10.4564 8.99915 10.1897 9.17051 10.0678 9.43762C9.9458 9.70472 9.99093 10.0184 10.1832 10.2403L16.6832 17.7403C16.9545 18.0534 17.4282 18.0872 17.7412 17.8159C18.0542 17.5446 18.0881 17.071 17.8168 16.7579L12.3925 10.4991H13.5C15.4016 10.4991 16.9725 9.08383 17.217 7.24915H17.25C17.6642 7.24915 18 6.91336 18 6.49915C18 6.08493 17.6642 5.74915 17.25 5.74915H17.1152C16.9889 5.29142 16.7779 4.86879 16.5003 4.49915H17.25C17.6642 4.49915 18 4.16336 18 3.74915C18 3.33493 17.6642 2.99915 17.25 2.99915H10.75Z" fill="#212121"/>
</svg>

<svg viewBox="0 0 20 20" fill="none" xmlns="http://www.w3.org/2000/svg" height="1em" width="1em">
  <path d="M6.25 2.748a.75.75 0 1 0-1.5 0v.332A3.501 3.501 0 0 0 2 6.5v.28a3.78 3.78 0 0 0 2.172 3.422l.578.272v4.864a2 2 0 0 1-1.25-1.855v-1.08a.75.75 0 0 0-1.5 0v1.08a3.501 3.501 0 0 0 2.75 3.42v.347a.75.75 0 0 0 1.5 0v-.348A3.501 3.501 0 0 0 9 13.482v-.272a3.774 3.774 0 0 0-2.168-3.415L6.25 9.52V4.645A2 2 0 0 1 7.5 6.499v1.096a.75.75 0 0 0 1.5 0V6.499a3.501 3.501 0 0 0-2.75-3.42v-.331Zm-1.5 1.897v4.17A2.281 2.281 0 0 1 3.5 6.78V6.5a2 2 0 0 1 1.25-1.855Zm1.5 6.535a2.274 2.274 0 0 1 1.25 2.03v.273a2 2 0 0 1-1.25 1.855V11.18ZM10.75 3a.75.75 0 0 0 0 1.5h2.75c.883 0 1.648.508 2.016 1.25H10.75a.75.75 0 0 0 0 1.5h4.944A2.251 2.251 0 0 1 13.5 9h-2.75a.75.75 0 0 0-.567 1.24l6.5 7.5a.75.75 0 1 0 1.134-.982l-5.425-6.259H13.5a3.75 3.75 0 0 0 3.717-3.25h.033a.75.75 0 0 0 0-1.5h-.135A3.736 3.736 0 0 0 16.5 4.5h.75a.75.75 0 0 0 0-1.5h-6.5Z" fill="#212121"/>
</svg>
